images/contacts/phone.svg

<svg width="32" height="32" viewBox="0 0 32 32" fill="none" xmlns="http://www.w3.org/2000/svg">
<path d="M26.7783 20.4537L26.7783 20.4537L26.7842 20.4594C27.2729 20.9338 27.4919 21.4612 27.4998 21.9652C27.5076 22.4686 27.3056 23.001 26.8547 23.4866L26.1334 24.2039C25.7532 24.5552 25.4172 24.8886 25.1056 25.253L25.0929 25.2656L25.0847 25.2737L25.0769 25.2822C24.333 26.0936 23.3808 26.5 22.2348 26.5H22.2341H22.2335H22.2329H22.2322H22.2316H22.2309H22.2303H22.2297H22.229H22.2284H22.2277H22.2271H22.2264H22.2258H22.2251H22.2245H22.2238H22.2232H22.2226H22.2219H22.2213H22.2206H22.2199H22.2193H22.2186H22.218H22.2173H22.2167H22.216H22.2154H22.2147H22.2141H22.2134H22.2128H22.2121H22.2114H22.2108H22.2101H22.2095H22.2088H22.2081H22.2075H22.2068H22.2062H22.2055H22.2048H22.2042H22.2035H22.2028H22.2022H22.2015H22.2008H22.2002H22.1995H22.1988H22.1982H22.1975H22.1968H22.1962H22.1955H22.1948H22.1941H22.1935H22.1928H22.1921H22.1914H22.1908H22.1901H22.1894H22.1888H22.1881H22.1874H22.1867H22.186H22.1854H22.1847H22.184H22.1833H22.1827H22.182H22.1813H22.1806H22.1799H22.1793H22.1786H22.1779H22.1772H22.1765H22.1758H22.1752H22.1745H22.1738H22.1731H22.1724H22.1717H22.171H22.1704H22.1697H22.169H22.1683H22.1676H22.1669H22.1662H22.1655H22.1649H22.1642H22.1635H22.1628H22.1621H22.1614H22.1607H22.16H22.1593H22.1586H22.1579H22.1572H22.1566H22.1559H22.1552H22.1545H22.1538H22.1531H22.1524H22.1517H22.151H22.1503H22.1496H22.1489H22.1482H22.1475H22.1468H22.1461H22.1454H22.1447H22.144H22.1433H22.1426H22.1419H22.1412H22.1405H22.1398H22.1391H22.1384H22.1377H22.137H22.1363H22.1356H22.1349H22.1342H22.1335H22.1328H22.1321H22.1314H22.1307H22.13H22.1293H22.1286H22.1278H22.1271H22.1264H22.1257H22.125H22.1243H22.1236H22.1229H22.1222H22.1215H22.1208H22.1201H22.1194H22.1187H22.1179H22.1172H22.1165H22.1158H22.1151H22.1144H22.1137H22.113H22.1123H22.1116H22.1108H22.1101H22.1094H22.1087H22.108H22.1073H22.1066H22.1059H22.1052H22.1044H22.1037H22.103H22.1023H22.1016H22.1009H22.1002H22.0995H22.0987H22.098H22.0973H22.0966H22.0959H22.0952H22.0945H22.0937H22.093H22.0923H22.0916H22.0909H22.0902H22.0895H22.0887H22.088H22.0873H22.0866H22.0859H22.0852H22.0844H22.0837H22.083H22.0823H22.0816H22.0809H22.0801H22.0794H22.0787H22.078H22.0773H22.0766H22.0758H22.0751H22.0744H22.0737H22.073H22.0723H22.0715H22.0708H22.0701H22.0694H22.0687H22.068H22.0672H22.0665H22.0658H22.0651H22.0644H22.0637H22.0629H22.0622H22.0615H22.0608H22.0601H22.0594H22.0586H22.0579H22.0572H22.0565H22.0558H22.055H22.0543H22.0536H22.0529H22.0522H22.0515H22.0507H22.05H22.0493H22.0486H22.0479H22.0472H22.0464H22.0457H22.045H22.0443H22.0436H22.0429H22.0421H22.0414H22.0407H22.04H22.0393H22.0386H22.0378H22.0371H22.0364H22.0357H22.035H22.0343H22.0335H22.0328H22.0321H22.0314H22.0307H22.03H22.0292H22.0285H22.0278H22.0271H22.0264H22.0257H22.025H22.0242H22.0235H22.0228H22.0221H22.0214H22.0207H22.02H22.0192H22.0185H22.0178H22.0171H22.0164H22.0157H22.015H22.0142H22.0135H22.0128H22.0121H22.0114H22.0107H22.01H22.0093H22.0085H22.0078H22.0071H22.0064H22.0057H22.005H22.0043H22.0036H22.0029H22.0022H22.0014H22.0007H22H21.9993H21.9986H21.9979H21.9972H21.9965H21.9958H21.9951H21.9944H21.9936H21.9929H21.9922H21.9915H21.9908H21.9901H21.9894H21.9887H21.988H21.9873H21.9866H21.9859H21.9852H21.9845H21.9838H21.9831H21.9824H21.9816H21.9809H21.9802H21.9795H21.9788H21.9781H21.9774H21.9767H21.976H21.9753H21.9746H21.9739H21.9732H21.9725H21.9718H21.9711H21.9704H21.9697H21.969H21.9683H21.9676H21.9669H21.9662H21.9655H21.9648H21.9641H21.9635H21.9628H21.9621H21.9614H21.9607H21.96H21.9593H21.9586H21.9579H21.9572H21.9565H21.9558H21.9551H21.9544H21.9537H21.9531H21.9524H21.9517H21.951H21.9503H21.9496H21.9489H21.9482H21.9475H21.9468H21.9462H21.9455H21.9448H21.9441H21.9434H21.9427H21.942H21.9414H21.9407H21.94H21.9393H21.9386H21.9379H21.9373H21.9366H21.9359H21.9352H21.9345H21.9339H21.9332H21.9325H21.9318H21.9311H21.9305H21.9298H21.9291H21.9284H21.9278H21.9271H21.9264H21.9257H21.9251H21.9244H21.9237H21.923H21.9224H21.9217H21.921H21.9204H21.9197H21.919H21.9183H21.9177H21.917H21.9163H21.9157H21.915H21.9143H21.9137H21.913H21.9123H21.9117H21.911H21.9103H21.9097H21.909H21.9084H21.9077H21.907H21.9064H21.9057H21.9051H21.9044H21.9037H21.9031H21.9024H21.9018H21.9011H21.9005H21.8998H21.8991H21.8988C20.0691 26.3684 18.4297 25.7001 17.1444 25.0877C13.8106 23.4965 10.9008 21.2148 8.46829 18.3444C6.45599 15.943 5.10286 13.7203 4.2295 11.3254L4.22952 11.3254L4.22793 11.3212C3.6444 9.76507 3.42317 8.54474 3.52322 7.4007L3.52346 7.39778C3.59528 6.51696 3.95071 5.762 4.57487 5.14134L4.57491 5.14138L4.57976 5.13641L6.5047 3.16838C6.99674 2.70486 7.50172 2.5 8.0316 2.5C8.5651 2.5 9.06788 2.70744 9.52927 3.16624L9.53635 3.17328L9.54371 3.18004C9.88446 3.49281 10.2267 3.83266 10.5771 4.18114C10.7486 4.37875 10.9195 4.54871 11.1012 4.72929L11.1074 4.7355L12.6583 6.27771C13.1551 6.77174 13.3816 7.29935 13.3816 7.8171C13.3816 8.33485 13.1551 8.86246 12.6583 9.35649L12.4134 9.6L12.1686 9.8435C12.0547 9.95672 11.9431 10.0694 11.8321 10.1815C11.5052 10.5115 11.1842 10.8357 10.8295 11.1492L10.557 11.3901L10.7023 11.7236C11.0795 12.5893 11.5974 13.385 12.3481 14.325L12.348 14.325L12.3527 14.3307C13.8464 16.1461 15.4077 17.5918 17.1484 18.6815C17.2999 18.7811 17.4792 18.8671 17.6354 18.942C17.6819 18.9644 17.7265 18.9857 17.7675 19.0062L17.7685 19.0066L17.7695 19.0071L17.7704 19.0076L17.7714 19.0081L17.7723 19.0085L17.7733 19.009L17.7742 19.0095L17.7752 19.01L17.7762 19.0104L17.7771 19.0109L17.7781 19.0114L17.779 19.0119L17.78 19.0123L17.7809 19.0128L17.7819 19.0133L17.7829 19.0138L17.7838 19.0142L17.7848 19.0147L17.7857 19.0152L17.7867 19.0157L17.7876 19.0161L17.7886 19.0166L17.7895 19.0171L17.7905 19.0176L17.7915 19.018L17.7924 19.0185L17.7934 19.019L17.7943 19.0195L17.7953 19.02L17.7962 19.0204L17.7972 19.0209L17.7982 19.0214L17.7991 19.0219L17.8001 19.0223L17.801 19.0228L17.802 19.0233L17.8029 19.0238L17.8039 19.0242L17.8049 19.0247L17.8058 19.0252L17.8068 19.0257L17.8077 19.0261L17.8087 19.0266L17.8096 19.0271L17.8106 19.0276L17.8116 19.028L17.8125 19.0285L17.8135 19.029L17.8144 19.0295L17.8154 19.0299L17.8163 19.0304L17.8173 19.0309L17.8182 19.0314L17.8192 19.0318L17.8202 19.0323L17.8211 19.0328L17.8221 19.0333L17.823 19.0337L17.824 19.0342L17.8249 19.0347L17.8259 19.0352L17.8269 19.0356L17.8278 19.0361L17.8288 19.0366L17.8297 19.0371L17.8307 19.0375L17.8316 19.038L17.8326 19.0385L17.8336 19.039L17.8345 19.0394L17.8355 19.0399L17.8364 19.0404L17.8374 19.0409L17.8383 19.0414L17.8393 19.0418L17.8402 19.0423L17.8412 19.0428L17.8422 19.0433L17.8431 19.0437L17.8441 19.0442L17.845 19.0447L17.846 19.0452L17.8469 19.0456L17.8479 19.0461L17.8489 19.0466L17.8498 19.0471L17.8508 19.0475L17.8517 19.048L17.8527 19.0485L17.8536 19.049L17.8546 19.0494L17.8556 19.0499L17.8565 19.0504L17.8575 19.0509L17.8584 19.0513L17.8594 19.0518L17.8603 19.0523L17.8613 19.0528L17.8622 19.0532L17.8632 19.0537L17.8642 19.0542L17.8651 19.0547L17.8661 19.0551L17.867 19.0556L17.868 19.0561L17.8689 19.0566L17.8699 19.057L17.8709 19.0575L17.8718 19.058L17.8728 19.0585L17.8737 19.059L17.8747 19.0594L17.8756 19.0599L17.8766 19.0604L17.8776 19.0609L17.8785 19.0613L17.8795 19.0618L17.8804 19.0623L17.8814 19.0628L17.8823 19.0632L17.8833 19.0637L17.8843 19.0642L17.8852 19.0647L17.8862 19.0651L17.8871 19.0656L17.8881 19.0661L17.889 19.0666L17.89 19.067L17.8909 19.0675L17.8919 19.068L17.8929 19.0685L17.8938 19.0689L17.8948 19.0694L17.8957 19.0699L17.8967 19.0704L17.8976 19.0708L17.8986 19.0713L17.8996 19.0718L17.9005 19.0723L17.9015 19.0727L17.9024 19.0732L17.9034 19.0737L17.9043 19.0742L17.9053 19.0746L17.9063 19.0751L17.9072 19.0756L17.9082 19.0761L17.9091 19.0765L17.9101 19.077L17.911 19.0775L17.912 19.078L17.9129 19.0784L17.9139 19.0789L17.9149 19.0794L17.9158 19.0799L17.9168 19.0804L17.9177 19.0808L17.9187 19.0813L17.9196 19.0818L17.9206 19.0823L17.9216 19.0827L17.9225 19.0832L17.9235 19.0837L17.9244 19.0842L17.9254 19.0846L17.9263 19.0851L17.9273 19.0856L17.9283 19.0861L17.9292 19.0865L17.9302 19.087L17.9311 19.0875L17.9321 19.088L17.933 19.0884L17.934 19.0889L17.9349 19.0894L17.9359 19.0899L17.9369 19.0903L17.9378 19.0908L17.9388 19.0913L17.9397 19.0918L17.9407 19.0922L17.9416 19.0927L17.9426 19.0932L17.9436 19.0937L17.9445 19.0941L17.9455 19.0946L17.9464 19.0951L17.9474 19.0956L17.9483 19.096L17.9493 19.0965L17.9503 19.097L17.9512 19.0975L17.9522 19.0979L17.9531 19.0984L17.9541 19.0989L17.955 19.0994L17.956 19.0999L17.9569 19.1003L17.9579 19.1008L17.9589 19.1013L17.9598 19.1018L17.9608 19.1022L17.9617 19.1027L17.9627 19.1032L17.9636 19.1037L17.9646 19.1041L17.9656 19.1046L17.9665 19.1051L17.9675 19.1056L17.9684 19.106L17.9694 19.1065L17.9703 19.107L17.9713 19.1075L17.9723 19.1079L17.9732 19.1084L17.9742 19.1089L17.9751 19.1094L17.9761 19.1098L17.977 19.1103L17.978 19.1108L17.979 19.1113L17.9799 19.1117L17.9809 19.1122L17.9818 19.1127L17.9828 19.1132L17.9837 19.1136L17.9847 19.1141L17.9856 19.1146L17.9866 19.1151L17.9876 19.1155L17.9885 19.116L17.9895 19.1165L17.9904 19.117L17.9914 19.1174L17.9923 19.1179L17.9933 19.1184L17.9943 19.1189L17.9952 19.1194L17.9962 19.1198L17.9971 19.1203L17.9981 19.1208L17.999 19.1213L18 19.1217L18.001 19.1222L18.0019 19.1227L18.0029 19.1232L18.0038 19.1236L18.0048 19.1241L18.0057 19.1246L18.0067 19.1251L18.0076 19.1255L18.0086 19.126L18.0096 19.1265L18.0105 19.127L18.0115 19.1274L18.0124 19.1279L18.0134 19.1284L18.0143 19.1289L18.0153 19.1293L18.0163 19.1298L18.0172 19.1303L18.0182 19.1308L18.0191 19.1312L18.0201 19.1317L18.021 19.1322L18.022 19.1327L18.023 19.1331L18.0239 19.1336L18.0249 19.1341L18.0258 19.1346L18.0268 19.135L18.0277 19.1355L18.0287 19.136L18.0296 19.1365L18.0306 19.1369L18.0316 19.1374L18.0325 19.1379L18.0335 19.1384L18.0344 19.1389L18.0354 19.1393L18.0363 19.1398L18.0373 19.1403L18.0383 19.1408L18.0392 19.1412L18.0402 19.1417L18.0411 19.1422L18.0421 19.1427L18.043 19.1431L18.044 19.1436L18.045 19.1441L18.0459 19.1446L18.0469 19.145L18.0478 19.1455L18.0488 19.146L18.0497 19.1465L18.0507 19.1469L18.0517 19.1474L18.0526 19.1479L18.0536 19.1484L18.0545 19.1488L18.0555 19.1493L18.0564 19.1498L18.0574 19.1503L18.0583 19.1507L18.0593 19.1512L18.0603 19.1517L18.0612 19.1522L18.0622 19.1526L18.0631 19.1531L18.0641 19.1536L18.065 19.1541L18.066 19.1545L18.067 19.155L18.0679 19.1555L18.0689 19.156L18.0698 19.1564L18.0708 19.1569L18.0717 19.1574L18.0727 19.1579L18.0737 19.1583L18.0746 19.1588L18.0756 19.1593L18.0765 19.1598L18.0775 19.1603L18.0784 19.1607L18.0794 19.1612L18.0803 19.1617L18.0813 19.1622L18.0823 19.1626L18.0832 19.1631L18.0842 19.1636L18.0851 19.1641L18.0861 19.1645L18.087 19.165L18.088 19.1655L18.089 19.166L18.0899 19.1664L18.0909 19.1669L18.0918 19.1674L18.0928 19.1679L18.0937 19.1683L18.0947 19.1688L18.0957 19.1693L18.0966 19.1698L18.0976 19.1702L18.0985 19.1707L18.0995 19.1712L18.1004 19.1717L18.1014 19.1721L18.1023 19.1726L18.1033 19.1731L18.1043 19.1736L18.1052 19.174L18.1062 19.1745L18.1071 19.175L18.1081 19.1755L18.109 19.1759L18.11 19.1764L18.111 19.1769L18.1119 19.1774L18.1129 19.1779L18.1138 19.1783L18.1148 19.1788L18.1157 19.1793L18.1167 19.1798L18.1177 19.1802L18.1186 19.1807L18.1196 19.1812L18.1205 19.1817L18.1215 19.1821L18.1224 19.1826L18.1234 19.1831L18.1243 19.1836L18.1253 19.184L18.1263 19.1845L18.1272 19.185L18.1282 19.1855L18.1291 19.1859L18.1301 19.1864L18.131 19.1869L18.132 19.1874L18.133 19.1878L18.1339 19.1883L18.1349 19.1888L18.1358 19.1893L18.1368 19.1897L18.1377 19.1902L18.1387 19.1907L18.1397 19.1912L18.1406 19.1916L18.1416 19.1921L18.1425 19.1926L18.1435 19.1931L18.1444 19.1935L18.1454 19.194L18.1464 19.1945L18.1473 19.195L18.1483 19.1954L18.1492 19.1959L18.1502 19.1964L18.1511 19.1969L18.1521 19.1973L18.153 19.1978L18.154 19.1983L18.155 19.1988L18.1559 19.1993L18.1569 19.1997L18.1578 19.2002L18.1588 19.2007L18.1597 19.2012L18.1607 19.2016L18.1617 19.2021L18.1626 19.2026L18.1636 19.2031L18.1645 19.2035L18.1655 19.204L18.1664 19.2045L18.1674 19.205L18.1684 19.2054L18.1693 19.2059L18.1703 19.2064L18.1712 19.2069L18.1722 19.2073L18.1731 19.2078L18.1741 19.2083L18.175 19.2088L18.176 19.2092L18.177 19.2097L18.1779 19.2102L18.1789 19.2107L18.1798 19.2111L18.1808 19.2116L18.1817 19.2121L18.1827 19.2126L18.1837 19.213L18.1846 19.2135L18.1856 19.214L18.1865 19.2145L18.1875 19.2149L18.1884 19.2154L18.1894 19.2159L18.1904 19.2164L18.1913 19.2168L18.1923 19.2173L18.1932 19.2178L18.1942 19.2183L18.1951 19.2188L18.1961 19.2192L18.197 19.2197L18.198 19.2202L18.199 19.2207L18.1999 19.2211L18.2009 19.2216L18.2018 19.2221L18.2028 19.2226L18.2037 19.223L18.2047 19.2235L18.2057 19.224L18.2066 19.2245L18.2076 19.2249L18.2085 19.2254L18.2095 19.2259L18.2104 19.2264L18.2114 19.2268L18.2124 19.2273L18.2133 19.2278L18.2143 19.2283L18.2152 19.2287L18.2162 19.2292L18.2171 19.2297L18.2181 19.2302L18.2191 19.2306L18.22 19.2311L18.221 19.2316L18.2219 19.2321L18.2229 19.2325L18.2238 19.233L18.2248 19.2335L18.2257 19.234L18.2267 19.2344L18.2277 19.2349L18.2286 19.2354L18.2296 19.2359L18.2305 19.2363L18.2315 19.2368L18.2324 19.2373L18.2334 19.2378L18.2344 19.2383L18.2353 19.2387L18.2363 19.2392L18.2372 19.2397L18.2382 19.2402L18.2391 19.2406L18.2401 19.2411L18.2411 19.2416L18.242 19.2421L18.243 19.2425L18.2439 19.243L18.2449 19.2435L18.2458 19.244L18.2468 19.2444L18.2477 19.2449L18.2487 19.2454L18.2497 19.2459L18.2506 19.2463L18.2516 19.2468L18.2525 19.2473L18.2535 19.2478L18.2544 19.2482L18.2554 19.2487L18.2564 19.2492L18.2573 19.2497L18.5783 19.4093L18.8325 19.1565L20.6555 17.3437C21.1223 16.8795 21.6536 16.6504 22.1804 16.6504C22.7117 16.6504 23.2105 16.8558 23.6695 17.335L23.6694 17.3351L23.6765 17.3422L26.7783 20.4537Z" stroke="current-color"/>
</svg>

<svg width="32" height="32" fill="none" xmlns="http://www.w3.org/2000/svg"><path d="M26.778 20.454h0l.006.005c.489.475.708 1.002.716 1.506.008.504-.194 1.036-.645 1.522l-.722.717c-.38.351-.716.685-1.027 1.049l-.013.013-.008.008-.008.008c-.744.812-1.696 1.218-2.842 1.218h0-.002 0-.002 0-.002 0-.001 0-.002 0-.002 0-.002 0-.002 0-.002 0-.002 0-.001 0-.002 0-.002 0-.002 0-.002 0-.002 0-.002 0-.002 0-.002 0-.002 0-.002 0-.002 0-.002 0-.002 0-.002 0-.001 0-.002 0-.002 0-.002 0-.002 0-.002 0-.002 0-.002 0-.001 0-.002 0-.002 0-.002 0-.002 0-.002 0-.001 0-.002 0-.002 0-.002 0-.002 0-.001 0-.002 0-.002 0-.002 0-.001 0-.002 0-.002 0-.002 0-.001 0-.002 0-.002 0-.002 0-.001 0-.002 0-.002 0-.001 0-.002 0-.002 0-.002 0-.001 0-.002 0-.002 0-.001 0-.002 0-.002 0-.001 0-.002 0-.002 0-.001 0-.002 0-.002 0-.001 0-.002 0-.002 0-.001 0-.002 0-.002 0-.001 0-.002 0-.002 0-.001 0-.002 0-.002 0-.001 0-.002 0-.002 0-.001 0-.002 0-.002 0-.001 0-.002 0-.002 0-.001 0-.002 0-.002 0-.001 0-.002 0-.001 0-.002 0-.002 0-.001 0-.002 0-.002 0-.001 0-.002 0-.002 0-.001 0-.002 0-.002 0-.001 0-.002 0-.002 0-.001 0-.002 0-.002 0-.001 0-.002 0-.002 0-.001 0-.002 0-.002 0-.001 0-.002 0-.002 0-.001 0-.002 0-.002 0-.001 0-.002 0H22h0-.002 0-.002 0-.002 0-.001 0-.002 0-.002 0-.001 0-.002 0-.002 0-.002 0-.001 0-.002 0-.002 0-.001 0-.002 0-.002 0-.002 0-.001 0-.002 0-.002 0-.002 0-.002 0-.001 0-.002 0-.002 0-.002 0-.002 0-.001 0-.002 0-.002 0-.002 0-.002 0-.001 0-.002 0-.002 0-.002 0-.002 0-.002 0-.002 0-.002 0-.002 0-.002 0-.001 0-.002 0-.002 0-.002 0-.002 0-.002 0-.002 0-.002 0-.002 0-.001 0-.002 0-.002 0-.002 0-.001c-1.83-.132-3.47-.8-4.755-1.412-3.333-1.591-6.243-3.873-8.676-6.744-2.012-2.401-3.365-4.624-4.239-7.019h0l-.001-.004c-.584-1.556-.805-2.776-.705-3.92v-.003A3.498 3.498 0 014.575 5.14h0l.005-.005 1.925-1.968c.492-.463.997-.668 1.527-.668.533 0 1.036.207 1.497.666l.007.007.008.007c.34.313.683.653 1.033 1.001.172.198.342.368.524.548l.006.006 1.551 1.543c.497.494.724 1.021.724 1.54 0 .517-.227 1.044-.724 1.538l-.245.244-.244.244c-.114.113-.226.225-.337.338-.327.33-.648.654-1.003.967l-.272.241.145.334c.377.865.895 1.661 1.646 2.601h0l.005.006c1.493 1.815 3.055 3.26 4.795 4.35.152.1.331.186.487.261l.132.064h.002v.001h.001l.001.001h.001l.001.001h.001l.001.001h.002l.001.001h.001l.001.001h0l.002.001h0l.002.001h0l.002.001h0l.002.001h0l.002.001h0l.002.001h0l.001.001h.001l.001.001h.002l.001.001h.001l.001.001h.001l.001.001h0l.002.001h0l.002.001h0l.002.001h0l.002.001h0l.002.001h0l.002.001h.001l.001.001h.001l.001.001h.001l.001.001h.001l.001.001h.001l.001.001h0l.002.001h0l.002.001h0l.002.001h0l.002.001h0l.002.001h.002v.001h.001l.001.001h.001l.001.001h.001l.001.001h.001l.001.001h.001l.001.001h0l.002.001h0l.002.001h0l.002.001h0l.002.001h.002v.001h.002v.001h.001l.001.001h.001l.001.001h.001l.001.001h.001l.001.001h.001l.001.001h0l.002.001h0l.002.001h0l.002.001h.002v.001h.002v.001h.002v.001h.001l.001.001h.001l.001.001h.001l.001.001h.001l.001.001h.001l.001.001h0l.002.001h.002v.001h.002v.001h.002v.001h.002v.001h.002v.001h.001l.001.001h.001l.001.001h.001l.001.001h.001l.001.001h.001l.001.001h.002v.001h.002v.001h.002v.001h.002v.001h.002v.001h.002v.001h.001l.001.001h.001l.001.001h.001l.001.001h.001l.001.001h.002v.001h.002v.001h.002v.001h.002v.001h.002v.001h.002v.001h.002v.001h.001l.001.001h.001l.001.001h.002l.001.001h.001l.001.001h.001v.001h.002v.001h.002v.001h.002v.001h.002v.001h.002v.001h.002v.001h.001l.001.001h.002l.001.001h.001l.001.001h.001l.001.001h.001l.001.001h0l.002.001h0l.002.001h0l.002.001h0l.002.001h0l.002.001h0l.001.001h.002l.001.001h.001l.001.001h.001l.001.001h.001l.001.001H18l.001.001h0l.002.001h0l.002.001h0l.002.001h0l.002.001h0l.002.001h.001l.001.001h.001l.001.001h.001l.001.001h.001l.001.001h.001l.001.001h.001l.001.001h0l.002.001h0l.002.001h0l.002.001h.002v.001h.002v.001h.001l.001.001h.001l.001.001h.001l.001.001h.001l.001.001h.001l.001.001h.001l.001.001h0l.002.001h0l.002.001h.002v.001h.002v.001h.002v.001h.001l.001.001h.001l.001.001h.001l.001.001h.001l.001.001h.001l.001.001h.001l.001.001h0l.002.001h.002v.001h.002v.001h.002v.001h.002v.001h.001l.001.001h.001l.001.001h.001l.001.001h.001l.001.001h.001l.001.001h.001l.001.001h.002v.001h.002v.001h.002v.001h.002v.001h.002v.001h.001l.001.001h.001l.001.001h.001l.001.001h.001l.001.001h.002l.001.001h.001v.001h.002v.001h.002v.001h.002v.001h.002v.001h.002v.001h.001l.001.001h.001l.001.001h.001l.001.001h.002l.001.001h.001l.001.001h.001v.001h.002v.001h.002v.001h.002v.001h.002v.001h.002v.001h.001l.001.001h.001l.001.001h.002l.001.001h.001l.001.001h.001l.001.001h.001v.001h.002v.001h.002v.001h.002v.001h.002v.001h.002v.001h.001l.001.001h.002l.001.001h.001l.001.001h.001l.001.001h.001l.001.001h.001v.001h.002v.001h.002v.001h.002v.001h.002v.001h.002l.001.001h.001l.001.001h.001l.001.001h.001l.001.001h.001l.001.001h.001l.001.001h.001v.001h.002v.001h.002v.001h.002v.001h.002l.002.001h0l.001.001h.001l.001.001h.001l.001.001h.001l.001.001h.001l.001.001h.001l.001.001h.001v.001h.002v.001h.002v.001h.002l.002.001h0l.002.001h0l.001.001h.001l.001.001h.001l.001.001h.001l.001.001h.001l.001.001h.001l.001.001h.001v.001h.002v.001h.002l.002.001h0l.002.001h0l.002.001h0l.001.001h.001l.001.001h.001l.321.16.255-.252 1.823-1.813c.466-.465.998-.694 1.524-.694.532 0 1.03.206 1.49.685h0l.006.007 3.102 3.112z" stroke="current-color"/></svg>
